packages/dnb-eufemia/assets/icons/motorcycle.svg

<svg width="16" height="16" viewBox="0 0 16 16" fill="none" xmlns="http://www.w3.org/2000/svg">
<path d="M15 9.00156C14.6839 8.68546 14.3511 8.41011 13.9281 8.24535C12.8863 7.83952 11.6566 8.15367 10.9378 9.01649L9.67745 10.5288C9.50225 10.7391 9.23394 10.8648 8.96019 10.8647H7.9605C7.69124 10.8647 7.42714 10.7432 7.25194 10.5387C6.98229 10.2246 6.71858 9.88482 6.44324 9.55253M9.16485 2H10.274C10.71 1.99995 11.0974 2.3143 11.1872 2.7409L11.6549 5.03266M4.99782 5.51407L1.93313 5.7325C1.42488 5.7325 1 6.15739 1 6.66563C1 7.17387 1.42488 7.59876 1.93313 7.59876C2.8385 7.59876 3.73073 7.55202 4.57575 7.94151C5.32844 8.28846 5.90784 8.90641 6.44324 9.55253M4.99782 5.51407L6.79222 7.2269C6.96715 7.40172 7.20433 7.49995 7.45163 7.5H8.46501C8.97325 7.5 9.39813 7.07512 9.39813 6.56687V5.20045M4.99782 5.51407L9.39813 5.20045M9.39813 5.20045L11.6549 5.03266M11.6549 5.03266L12.7574 10.4355M6.44324 9.55253L4.3535 11.1368M4.3535 11.1368C4.01268 10.688 3.47332 10.3981 2.86625 10.3981C1.83555 10.3981 1 11.2337 1 12.2644C1 13.2951 1.83555 14.1306 2.86625 14.1306C3.89695 14.1306 4.7325 13.2951 4.7325 12.2644C4.7325 11.8407 4.59135 11.4501 4.3535 11.1368ZM12.7574 10.4355C11.9056 10.6084 11.2644 11.3615 11.2644 12.2644C11.2644 13.2951 12.0999 14.1306 13.1306 14.1306C14.1613 14.1306 14.9969 13.2951 14.9969 12.2644C14.9969 11.2337 14.1613 10.3981 13.1306 10.3981C13.0028 10.3981 12.878 10.411 12.7574 10.4355ZM13.1306 5.03266C13.1306 5.99285 14.0004 6.19907 14.7636 6.19907V3.86625C14.0004 3.86625 13.1306 4.07247 13.1306 5.03266Z" stroke="black" stroke-width="1.5" stroke-linecap="round" stroke-linejoin="round"/>
</svg>

<svg width="16" height="16" viewBox="0 0 16 16" fill="none" xmlns="http://www.w3.org/2000/svg"><path d="M15 9.002c-.316-.317-.649-.592-1.072-.757a2.674 2.674 0 0 0-2.99.771l-1.26 1.513a.944.944 0 0 1-.718.336h-1a.943.943 0 0 1-.708-.326c-.27-.314-.533-.654-.809-.986M8.6 2h1.675c.436 0 .823.314.913.74l.468 2.293m0 0L9.398 5.2l-4.4.314-3.065.218A.942.942 0 0 0 1 6.667c0 .508.425.933.933.933.905 0 1.798-.047 2.643.343.752.346 1.332.964 1.867 1.61m5.212-4.52 1.102 5.403m-6.314-.882-2.09 1.584m0 0a1.866 1.866 0 1 0-2.974 2.255 1.866 1.866 0 0 0 2.975-2.255Zm8.404-.702a1.867 1.867 0 1 0 .748 3.659 1.867 1.867 0 0 0-.748-3.659Zm.374-5.402c0 .96.699 1.142 1.211 1.142V3.842c-.512 0-1.211.23-1.211 1.19Z" stroke="#000" stroke-width="1.5" stroke-linecap="round" stroke-linejoin="round"/></svg>
